X:1
T:Title
%%score { ( 1 3 ) | ( 2 4 ) }
L:1/8
Q:1/4=100
M:4/4
K:D
V:1 treble nm="Grand Piano"
V:3 treble 
V:2 bass 
V:4 bass 
V:1
 [A,DF]3 [A,DF] [A,EG]2 [DFA]2 | [DGB]4 [DFA]4 | [F,D]3 [F,D] [F,D]2[K:treble] [A,CE]2 | %3
w: B.~E.~Warren * * *|||
 [A,DF]6 z2 | [DGB]3 [DGB] [DGB]2 [DGB]2 | [DFA]4 [A,DF]4 | [Dd]3 [Fd] [Ec]2 [DB]2 | [CA]6 z2 | %8
w: |||||
 F3 F F2 F2 | [FA]4 [FA]4 | B3 B B2 d2 | c6 z2 | [Fd]3 [Fd] [Gd]2 [Gd]2 | [Fd]4 z2 E2 | %14
w: ||||||
 F3 [EG] [DF]2[K:bass] [G,CE]2 | [F,D]6 z2 | z8 | [DFA]2 [DFA][FA] [DA]2 A2 | G2 GG G2 G2 | %19
w: |||||
 E2 [A,CE][DF] [CEG]2 G2 | F2 F2 A2 A2 | z2 d2 z4 | d2 d2 d2 c2 | d2 d2 d2 F2 | A4 z4 | %25
w: ||||||
 [A,DF]4 [A,DF]4 |] %26
w: |
V:2
 D,3 D, D,2 D,2 | D,4 D,4 | D,3 D, B,,2 A,,2 | D,6 z2 | G,,3 G,, G,,2 B,,2 | D,4 D,4 | %6
 [B,,B,]3 [B,,B,] [E,A,]2 [E,^G,]2 | [A,,A,]6 z2 | [D,A,D]3 [D,A,D] [D,A,D]2 [D,A,D]2 | %9
 [D,D]4 [D,D]4 | [^G,D]3 [G,D] [E,G,D]2 [E,G,D]2 | E4 z4 | [D,A,]3 [D,A,] [D,B,]2 [D,B,]2 | %13
 [D,A,]4 [F,A,]2 [G,B,]2 | [A,D]3 [A,,A,] [A,,A,]2 A,,2 | D,6 z2 | F,4 E,2 D,2 | %17
 A,,2 z D z2[K:treble] D2 | [CE]2 [B,E][A,E] [G,A,E]2[K:bass] [E,A,E]2 | [C,A,]2 z B, z2 [CE]2 | %20
 [D,A,D]2 [D,A,D]2 [E,A,C]2 [F,A,D]2 | [G,D]2 .[F,A,D]2 [E,A,]4 | %22
 [F,A,D]2 [F,A,D]2[K:treble] [G,B,D]2 [A,E]2 | [B,DG]2 [A,DF]2[K:bass] [F,A,D]2 [D,A,D]2 | %24
 [E,A,]2 z2 z4 | D,4 D,4 |] %26
V:3
 x8 | x8 | x6[K:treble] x2 | x8 | x8 | x8 | x8 | x8 | x8 | x8 | x8 | z4 G2 z2 | x8 | z4 D4 | %14
 x6[K:bass] x2 | x8 | x8 | x8 | x8 | x8 | x8 | B2 z F [Gc]4 | x8 | x8 | z2 A,2 [CEA]2 [B,CG]2 | %25
 x8 |] %26
V:4
 x8 | x8 | x8 | x8 | x8 | x8 | x8 | x8 | x8 | x8 | x8 | A,6 z2 | x8 | x8 | x8 | x8 | x8 | %17
 z2 D,2 F,4[K:treble] | A,4 z4[K:bass] | z2 B,,2 A,,4 | x8 | x8 | x4[K:treble] x4 | x4[K:bass] x4 | %24
 C4 G,2 A,,2 | x8 |] %26

